X:1
T:Title
%%score { ( 1 3 4 ) | ( 2 5 6 ) }
L:1/8
M:4/4
K:Bb
V:1 treble nm="Grand Piano"
V:3 treble 
V:4 treble 
V:2 bass 
V:5 bass 
V:6 bass 
V:1
 z4 z2[Q:1/4=94] D>E | [DF]2 d2 [DB]2 z2 | [EG]2 [EG][FA] [Ac][EGB][EFA][EG] | [DF]2 z2 [=Ed]2 c2 | %4
 c6[K:bass] z2[K:treble] | [DF]2 d2 [DB]2 z2 | [EG]2 [EG][FA] [Ac][EGB][EFA][EG] | [DF]2 z2 d2 c2 | %8
 B6 z2 | [Fd]2 [Ec]>[DB] [DF]2 [DF]>[DF] | G2 AB [DB] [DF]3 | [Fd]2 [Ec]>[DB] [DF]2 [DF]>[DF] | %12
 z4 c4[K:bass] | [Fd]2 [Ec]>[DB] [DF]2 [DF]>[DF] | G2 A>B [DB] [DF]3 | [Ge]2 [Fd]c F B2 B | %16
 A d2 c [DB]4 |] %17
V:2
 z4 z2 B,>C | z2 F2 z4 | E,B,B,B, E,B,B,B, | z4 z2 =E2 | E6 z C, | z2 [F,B,]F, z4 | %6
 E,B,B,B, E,B,B,B, | B,,F,[F,B,D][F,B,E] .[F,F]2 E>E | z A,G,^F, =F,2 z2 | %9
 [B,,B,]2 [B,,F,]>[B,,F,] [B,,B,]2 [B,,B,]>[B,,B,] | [E,B,E]2 [E,A,E][E,G,E] [B,,F,] [B,,B,]3 | %11
 [B,,B,]2 [B,,F,]>[B,,F,] [B,,B,]2 [B,,B,]>[B,,B,] | [C,B,]2 [C,B,]>[C,B,] [A,E]4 | %13
 [B,,B,]2 [B,,F,]>[B,,F,] [B,,B,]2 [B,,B,]>[B,,B,] | [E,B,E]2 [E,A,E]>[E,G,E] [B,,F,] [B,,B,]3 | %15
 [C,C]2 [D,=B,][E,CE] [F,_B,D] [F,DF]2 [F,DF] | [F,CF] [F,A,F]2 [F,A,E] [B,,B,]4 |] %17
V:3
 x8 | z B, z z/ c/ z B,[B,DB][B,DA] | x8 | z B,Bc z B, z z/ =B/ | %4
 z[K:bass] B,CB, A,2 [B,D]>[K:treble]E | z B, z z/ c/ z B,[B,DB][B,DA] | x8 | z B,Bc z B, z z/ c/ | %8
 .[B,D]2 EE D2 z2 | x8 | x8 | x8 | [=EG]2 [Ec]>[Ed] z[K:bass] E,D,C, | x8 | x8 | x8 | x8 |] %17
V:4
 x8 | z2 z B, z4 | x8 | z4 z2 z B, | x[K:bass] x13/2[K:treble] x/ | z2 z B, z4 | x8 | z4 z2 z A, | %8
 x8 | x8 | x8 | x8 | x5[K:bass] x3 | x8 | x8 | x8 | x8 |] %17
V:5
 x8 | B,,F, .[F,B,]>E B,,F,F,F, | x8 | B,,F,[F,B,D][F,B,E] C,G, .[G,B,]>=E | %4
 [F,A,]G,A,G, F,E, .D,>C | B,,F, F>E B,,F,F,F, | x8 | z4 z2 [F,A,]F, | B,,6 z2 | x8 | x8 | x8 | %12
 z4 .F,2 z2 | x8 | x8 | x8 | x8 |] %17
V:6
 x8 | z2 z F, z4 | x8 | z4 z2 z G, | x8 | x8 | x8 | x8 | x8 | x8 | x8 | x8 | x8 | x8 | x8 | x8 | %16
 x8 |] %17

